X:1

T:Devil on two Sticks, The

M:6/8

L:1/8

B:Thompson’s Compleat Collection of 200 Favourite Country Dances, vol. 1 (London, 1757)

Z:Transcribed and edited by Flynn Titford-Mock, 2007

Z:abc’s:AK/Fiddler’s Companion

K:G

D2D B2B|ABc B2A|BdD G2G|ABc B2A|B2c ded|c2B A2D|

G2G F2F|E2E D2d|BdD G2G|ABc B2A|BdD G2B|cBA G3:||

 

DEVIL OR NO DEVIL. American (?), Jig. G Major. Standard tuning. AABB. The melody first appears in J. Hewitt’s Fashionable Repertory of Country Dances and Waltzes (New York, 1807-1810), and later in Wilson’s Companion to the Ballroom (London, 1816). Kennedy (Jigs & Quicksteps, Trips & Humours), 1997; No. 26, pg. 8.

 

DEVIL SHAKE THE HALF-BREED [1]. A version of “Rickett’s Hornpipe” played by fiddler Jesse Gatten of Danbury, Wisconsin, c. 1950's (Paul Gifford).

 

DEVIL SHAKE THE HALF-BREED [2]. AKA and see “Calum Crubach,”  “Devil in the Kitchen [1],” “Gurren’s Castle,” "Miss Sarah Drummond of Perth [1],” “Miss Drummond of Perth [1],” “Mountain Reel [4],” “Our Highland Cousins,” "The Prince of Wales Jig,” “The Titanic Highland,” “Yorkshire Bite [1].” Paul Gifford finds this melody almost identical to Ryan’s (Mammoth Collection) “Mountain Reel [4],” which belongs to the “Miss Drummond of Perth” family of tunes. It was played by Chippewa fiddler Bill Cameron (Brimley, Michigan).

 

DEVIL STICK THE MINISTER.  See “De’il Stick the/da Minister.”

 

DEVIL TAKE A YALLER GAL. Old‑Time, Fiddle Tune. The title appears in a list of Ozark Mountain fiddle tunes compiled by musicologist/folklorist Vance Randolph, published in 1954.

 

DEVIL TAKE THE HINDMOST.

